src/icons/git.svg

<svg width="60" height="60" viewBox="0 0 60 60" fill="none" xmlns="http://www.w3.org/2000/svg">
<g clip-path="url(#clip0_173_290)">
<rect x="-0.461533" y="29.2458" width="42.1518" height="43.0832" rx="8" transform="rotate(-45 -0.461533 29.2458)" fill="white"/>
<path d="M58.4705 27.3647L32.6349 1.52998C31.148 0.0421704 28.7349 0.0421704 27.2456 1.52998L21.8813 6.8953L28.6866 13.7006C30.2686 13.1667 32.0817 13.5248 33.3422 14.7853C34.6092 16.0537 34.9645 17.8823 34.4175 19.4695L40.9763 26.0287C42.563 25.4817 44.3944 25.8351 45.6609 27.1045C47.4328 28.875 47.4328 31.7451 45.6609 33.5165C45.2399 33.9378 44.7399 34.272 44.1897 34.5C43.6394 34.728 43.0496 34.8454 42.454 34.8454C41.8584 34.8454 41.2686 34.728 40.7183 34.5C40.1681 34.272 39.6681 33.9378 39.247 33.5165C38.6144 32.8835 38.1832 32.0775 38.0076 31.2C37.832 30.3224 37.9199 29.4125 38.2603 28.5848L32.1441 22.4686L32.1431 38.5659C32.5869 38.7845 32.9921 39.0739 33.3427 39.4228C35.1136 41.1933 35.1136 44.0625 33.3427 45.8367C31.5713 47.6072 28.7002 47.6072 26.9306 45.8367C25.1597 44.063 25.1597 41.1937 26.9306 39.4228C27.3549 38.9978 27.8596 38.6616 28.4152 38.4337V22.1873C27.8591 21.9601 27.3543 21.6236 26.9306 21.1978C25.5891 19.8572 25.2661 17.8884 25.9542 16.2403L19.245 9.53108L1.53001 27.2451C0.815311 27.9601 0.413818 28.9296 0.413818 29.9405C0.413818 30.9513 0.815311 31.9208 1.53001 32.6358L27.3661 58.4705C28.8539 59.9583 31.2661 59.9583 32.7563 58.4705L58.4709 32.7558C59.1855 32.0406 59.5868 31.0711 59.5867 30.0601C59.5867 29.0492 59.1852 28.0797 58.4705 27.3647Z" fill="#F34F29"/>
</g>
<defs>
<clipPath id="clip0_173_290">
<rect width="60" height="60" fill="white"/>
</clipPath>
</defs>
</svg>

<svg xmlns="http://www.w3.org/2000/svg" width="60" height="60" fill="none"><g clip-path="url(#a)"><rect width="42.152" height="43.083" x="-.462" y="29.246" fill="#fff" rx="8" transform="rotate(-45 -.462 29.246)"/><path fill="#F34F29" d="M58.47 27.365 32.636 1.53a3.812 3.812 0 0 0-5.39 0l-5.364 5.365 6.806 6.806a4.525 4.525 0 0 1 5.73 5.768l6.56 6.56A4.532 4.532 0 0 1 44.19 34.5a4.535 4.535 0 0 1-5.93-5.915l-6.116-6.116v16.097c.443.218.848.508 1.199.857a4.536 4.536 0 0 1-6.412 6.414 4.536 4.536 0 0 1 1.484-7.403V22.187a4.534 4.534 0 0 1-2.461-5.947l-6.709-6.709L1.53 27.245a3.813 3.813 0 0 0 0 5.39l25.836 25.836a3.813 3.813 0 0 0 5.39 0l25.715-25.715a3.813 3.813 0 0 0 0-5.391Z"/></g><defs><clipPath id="a"><path fill="#fff" d="M0 0h60v60H0z"/></clipPath></defs></svg>
